X:1
T:Oh, How Sweet When We Mingle
T:Robert Lowry
T:Oh, How Sweet When We Mingle
T:Public Domain
T:Public Domain
C:Robert Lowry
Z:Public Domain
%%score ( 1 2 ) ( 3 4 )
L:1/8
M:4/4
K:F
V:1 treble 
V:2 treble 
V:3 bass 
V:4 bass 
V:1
 F[FG] | [FA]2 [FA]>[FA] [FA] [Fc]2 [Fc] | [Fd][Fc][Fc][FA] [EG]2 (FG) | %3
w: 1.~Oh, how|when we min- gle with kin-|dred spir- its here, And tell *|
w: 2.~We are|grims of Zi- on, though tri-|als we must bear, Which all *|
w: 3.~When we|through the val- ley and sha-|dow of the tomb, Dear Sav- *|
 [FA]2 [CF]2 [B,D]C [A,F]>[CG] | [CF]6 | F[FG] | [FA]2 [FA]>[FA] [FA] [Fc]2 [Fc] | %7
w: Je- sus and His love! When|by|faith we|can see Him, and feel His|
w: bless- ings in dis- guise: Though|the|cross may|be hea- vy, the crown we|
w: Thou wilt be our Guide: And|Thy|smile like|a sun- beam will light be-|
 [Fd][Fc][Fc][FA] [EG]2 (FG) | [FA]2 [CF]2 [B,D]C [A,F]>[CG] | [CF]6 ||"^Refrain" [EG][FA] | %11
w: pre- sence near, And lift our *|ing souls a- bove. * *|||
w: soon shall wear In heav’n, where *|sure ne- ver dies. We shall|meet|on the|
w: yond the gloom, And keep Thy *|ple at Thy side. * *|||
 [GB]2 [GB]>[FA] [EG]2 [FA][GB] | [Ac]4 [FA]4 | [Fc]2 [FA]2 [Fd]2 [Fc]2 | [EB][FA][CG][DF] [EG]2 |] %15
w: ||||
w: banks of the ri- ver, Hap-|py, hap-|py there for- ev-|er- more! * * *|
w: ||||
V:2
 F x | x8 | x6 F2 | x8 | x6 | x2 | x8 | x6 F2 | x8 | x6 || x2 | x8 | x8 | x8 | x6 |] %15
w: sweet||of|||||long-||||||||
w: pil-||are|||||plea-||||||||
w: walk||ior,|||||peo-||||||||
V:3
 [F,A,][F,B,] | [F,C]2 [F,C]>[F,C] [F,C] [F,A,]2 [F,A,] | [F,B,][F,A,][F,A,][F,C] [C,C]2 (A,B,) | %3
w: ~ ~|~ ~ ~ ~ ~ ~|~ ~ ~ ~ ~ ~ *|
 [F,C]2 [A,,F,]2 [B,,F,][A,,F,] [D,F,]>[B,,B,] | [F,A,]6 | [F,A,][F,B,] | %6
w: ~ ~ ~ ~ ~ ~|We|shall dwell|
 [F,C]2 [F,C]>[F,C] [F,C] [F,A,]2 [F,A,] | [F,B,][F,A,][F,A,][F,C] [C,C]2 (A,B,) | %8
w: with the an- gels, and join|with chor- al song, Our loved *|
 [F,C]2 [A,,F,]2 [B,,F,][A,,F,] [D,F,]>[C,B,] | [F,A,]6 || [C,C][C,C] | %11
w: loved ones gone be- fore. *|||
 [C,C]2 [C,C]>[C,C] [B,C]2 [A,C][G,C] | [F,C]4 [F,C]4 | [F,A,]2 [F,C]2 [F,B,]2 [F,A,]2 | %14
w: |||
 [G,C][F,C][E,C][D,=B,] [C,C]2 |] %15
w: |
V:4
 x2 | x8 | x6 F,2 | x8 | x6 | x2 | x8 | x6 F,2 | x8 | x6 || x2 | x8 | x8 | x8 | x6 |] %15
w: ||~|||||ones,||||||||

